images/icons/cash-app-btc.svg

<svg fill="none" height="24" viewBox="0 0 24 24" width="24" xmlns="http://www.w3.org/2000/svg" xmlns:xlink="http://www.w3.org/1999/xlink"><clipPath id="a"><path d="m0 0h24v24h-24z"/></clipPath><clipPath id="b"><path d="m3.375 0h17.325v24h-17.325z"/></clipPath><mask id="c" height="24" maskUnits="userSpaceOnUse" width="24" x="0" y="0"><path d="m24 0h-24v24h24z" fill="#fff"/></mask><g clip-path="url(#a)"><g mask="url(#c)"><g clip-path="url(#b)"><path d="m17.2126 11.7375c1.9125-.525 3.45-2.06252 3.45-4.27502 0-2.4375-1.8375-4.0125-4.3875-4.4625l.4125-2.100005c.075-.375-.15-.787499-.5625-.8624994-.0375 0-.1125 0-.15 0h-2.6625c-.3375 0-.6375.2250004-.7125.5625004l-.4875 2.287504h-4.42504c-.2625 0-.4875.1875-.525.4125l-3.7875 17.17502c-.075.3.1125.6.4125.6375h.1125 4.1625l-.4125 1.95c-.075.4125.1875.7875.5625.9h.15 2.66254c.3375 0 .6375-.225.7125-.5625l.4875-2.2875h.4125c4.3125 0 7.05-2.3625 7.05-5.4.0375-1.6875-.9375-3.225-2.475-3.975zm-4.65 5.9625h-4.38754l.975-4.3875h3.60004c1.7625 0 2.85.75 2.85 2.0625s-1.1625 2.325-3.0375 2.325zm1.5-7.6125h-4.20004l.82504-3.75002h3.5625c1.4625 0 2.325.675 2.325 1.7625 0 1.3125-1.05 1.98752-2.5125 1.98752z" fill="#fff"/></g></g></g></svg>

<svg width="24" height="24" viewBox="0 0 24 24" fill="none" xmlns="http://www.w3.org/2000/svg">
<g clip-path="url(#clip0_1432_8566)">
<mask id="mask0_1432_8566" style="mask-type:luminance" maskUnits="userSpaceOnUse" x="0" y="0" width="24" height="24">
<path d="M24 0H0V24H24V0Z" fill="white"/>
</mask>
<g mask="url(#mask0_1432_8566)">
<g clip-path="url(#clip1_1432_8566)">
<path d="M17.2126 11.7375C19.1251 11.2125 20.6626 9.67498 20.6626 7.46248C20.6626 5.02498 18.8251 3.44998 16.2751 2.99998L16.6876 0.899975C16.7626 0.524975 16.5376 0.112476 16.1251 0.0374756C16.0876 0.0374756 16.0126 0.0374756 15.9751 0.0374756H13.3126C12.9751 0.0374756 12.6751 0.262476 12.6001 0.599976L12.1126 2.88748H7.68756C7.42506 2.88748 7.20006 3.07498 7.16256 3.29998L3.37506 20.475C3.30006 20.775 3.48756 21.075 3.78756 21.1125C3.82506 21.1125 3.86256 21.1125 3.90006 21.1125H8.06256L7.65006 23.0625C7.57506 23.475 7.83756 23.85 8.21256 23.9625C8.25006 23.9625 8.28756 23.9625 8.36256 23.9625H11.0251C11.3626 23.9625 11.6626 23.7375 11.7376 23.4L12.2251 21.1125H12.6376C16.9501 21.1125 19.6876 18.75 19.6876 15.7125C19.7251 14.025 18.7501 12.4875 17.2126 11.7375ZM12.5626 17.7H8.17506L9.15006 13.3125H12.7501C14.5126 13.3125 15.6001 14.0625 15.6001 15.375C15.6001 16.6875 14.4376 17.7 12.5626 17.7ZM14.0626 10.0875H9.86256L10.6876 6.33748H14.2501C15.7126 6.33748 16.5751 7.01248 16.5751 8.09998C16.5751 9.41248 15.5251 10.0875 14.0626 10.0875Z" fill="white"/>
</g>
</g>
</g>
<defs>
<clipPath id="clip0_1432_8566">
<rect width="24" height="24" fill="white"/>
</clipPath>
<clipPath id="clip1_1432_8566">
<rect width="17.325" height="24" fill="white" transform="translate(3.375)"/>
</clipPath>
</defs>
</svg>
